app/dist/common/images/european-lithium.svg

<svg height="18" viewBox="0 0 18 18" width="18" xmlns="http://www.w3.org/2000/svg"><path d="m0 0h18v18h-18z" fill="#f0f3fa"/><path d="m10 13v-8h1v7h3v1z" fill="#8f8f8f"/><path d="m5 13h4v-1h-3v-3h1.57l.43-1h-2v-2h3v-1h-4z" fill="#1a2b70"/></svg>

<!-- by TradingView --><svg xmlns="http://www.w3.org/2000/svg" width="18" height="18" viewBox="0 0 18 18"><path fill="#F0F3FA" d="M0 0h18v18H0z"/><path d="M10 13V5h1v7h3v1h-4Z" fill="#8F8F8F"/><path d="M5 13h4v-1H6V9h1.57L8 8H6V6h3V5H5v8Z" fill="#1A2B70"/></svg>
